X: 1
T: Bryn's
M: 4/4
L: 1/8
R: reel
K: Dmaj
|:A2AF G2GE|FD2D CDEF|GE2E FEDF|E2FG AFAd|
A2AF G2GE|FD2D CDEF|GEFD EDCE|DAFC D2Ad:|
|:fdec dBAG|FEDF AFAd|Adfd ecef|g2fd edBd|
Adfd edfd|AdBA =c2AB|=cBAG FGEF|DAFC D2Ad:|
